X: 2
T: Farewell To Erin
R: reel
M: 4/4
L: 1/8
K: Dmaj
D2 (3FED AD (3FED|Addc def2|D2 (3FED ADFA|BdAF EDCE|D2 (3FED AD (3FED|AddA Bcde|fd (3gfe dBBA|1 BdAF E2FE:|2 BdAF E2FA|||:d3B AF~F2|DFBF AF~F2|d3B BAFA|BdAF EDCE|DddA BcdB|BAFB ABde|fd (3gfe dBBA|1 BdAF E2FA:|2 BdAF E2FE||D2 (3FED AD (3FED|Addc defe|~d3A BAFA|BdAF EDCE||faec dBAF|1 BFAF EFGA:|2 BFAF EGFE||


Tune 846	Setting 846

